X: 19296
T: J.B., The
R: reel
M: 4/4
K: Bdorian
K: F# dorian
|:{AB}c2 c{=dc}B AFFE|CFFG AecB|{AB}c2 c{dc}B AFFd|eEEG BAGE|
{AB}c2 c{=dc}B AFFE|CFFG ABcd|dHeBe dfBd|e/f/g Be GBEG:|
|:Fffg {gg}agf{gf}e|HcAAB ABcA|Fffg {ggag}agfa|{ga}bag{ag}f eEGE|
Fffg {fg}agfa|{ga}gfed egbg|fgaTf ecBA|GABc A/G/F GE:|

